gtk-icons/Papirus-GTK/16x16/actions/text_letter_spacing.svg

<?xml version="1.0" encoding="UTF-8" standalone="no"?>
<!-- Created with Inkscape (http://www.inkscape.org/) -->

<svg
   xmlns:dc="http://purl.org/dc/elements/1.1/"
   xmlns:cc="http://creativecommons.org/ns#"
   xmlns:rdf="http://www.w3.org/1999/02/22-rdf-syntax-ns#"
   xmlns:svg="http://www.w3.org/2000/svg"
   xmlns="http://www.w3.org/2000/svg"
   xmlns:sodipodi="http://sodipodi.sourceforge.net/DTD/sodipodi-0.dtd"
   xmlns:inkscape="http://www.inkscape.org/namespaces/inkscape"
   width="16"
   height="16"
   id="svg3049"
   version="1.1"
   inkscape:version="0.91 r13725"
   sodipodi:docname="text_letter_spacing.svg"
   inkscape:export-filename="/home/uri/.kde/share/icons/NITRUX-KDE/16x16/actions/view-right-new.png"
   inkscape:export-xdpi="30"
   inkscape:export-ydpi="30">
  <defs
     id="defs3051">
    <style
       type="text/css"
       id="current-color-scheme">
      .ColorScheme-Text {
        color:#4d4d4d;
      }
      .ColorScheme-Background {
        color:#eff0f1;
      }
      .ColorScheme-Highlight {
        color:#3daee9;
      }
      .ColorScheme-ViewText {
        color:#31363b;
      }
      .ColorScheme-ViewBackground {
        color:#fcfcfc;
      }
      .ColorScheme-ViewHover {
        color:#93cee9;
      }
      .ColorScheme-ViewFocus{
        color:#3daee9;
      }
      .ColorScheme-ButtonText {
        color:#31363b;
      }
      .ColorScheme-ButtonBackground {
        color:#eff0f1;
      }
      .ColorScheme-ButtonHover {
        color:#93cee9;
      }
      .ColorScheme-ButtonFocus{
        color:#3daee9;
      }
      </style>
  </defs>
  <sodipodi:namedview
     id="base"
     pagecolor="#ffffff"
     bordercolor="#666666"
     borderopacity="1.0"
     inkscape:pageopacity="0.0"
     inkscape:pageshadow="2"
     inkscape:zoom="24.24"
     inkscape:cx="11.923858"
     inkscape:cy="7.3671891"
     inkscape:document-units="px"
     inkscape:current-layer="layer1"
     showgrid="false"
     fit-margin-top="0"
     fit-margin-left="0"
     fit-margin-right="0"
     fit-margin-bottom="0"
     inkscape:window-width="1407"
     inkscape:window-height="839"
     inkscape:window-x="183"
     inkscape:window-y="30"
     inkscape:window-maximized="0"
     inkscape:showpageshadow="false"
     borderlayer="true"
     inkscape:snap-bbox="true"
     inkscape:snap-global="true"
     showguides="false">
    <inkscape:grid
       type="xygrid"
       id="grid4085" />
    <sodipodi:guide
       position="2,15"
       orientation="12,0"
       id="guide4075" />
    <sodipodi:guide
       position="17,2"
       orientation="0,12"
       id="guide4077" />
    <sodipodi:guide
       position="14,13"
       orientation="-12,0"
       id="guide4079" />
    <sodipodi:guide
       position="0,14"
       orientation="0,-12"
       id="guide4081" />
  </sodipodi:namedview>
  <metadata
     id="metadata3054">
    <rdf:RDF>
      <cc:Work
         rdf:about="">
        <dc:format>image/svg+xml</dc:format>
        <dc:type
           rdf:resource="http://purl.org/dc/dcmitype/StillImage" />
        <dc:title />
      </cc:Work>
    </rdf:RDF>
  </metadata>
  <g
     inkscape:label="Capa 1"
     inkscape:groupmode="layer"
     id="layer1"
     transform="translate(-421.71429,-531.79074)">
    <rect
       style="fill:currentColor;fill-opacity:1;stroke:none"
       id="rect4035"
       width="0"
       height="10.999983"
       x="417.71429"
       y="534.79071"
       class="ColorScheme-Text" />
    <rect
       style="fill:currentColor;fill-opacity:1;stroke:none"
       id="rect4035-2"
       width="0"
       height="10.999983"
       x="411.57404"
       y="535.0567"
       class="ColorScheme-Text" />
    <rect
       style="fill:currentColor;fill-opacity:1;stroke:none"
       id="rect4035-5"
       width="0"
       height="10.999983"
       x="429.61481"
       y="533.00537"
       class="ColorScheme-Text" />
    <rect
       style="fill:currentColor;fill-opacity:1;stroke:none"
       id="rect4035-8"
       width="0"
       height="10.999983"
       x="411.57404"
       y="535.0567"
       class="ColorScheme-Text" />
    <rect
       style="fill:currentColor;fill-opacity:1;stroke:none"
       id="rect4035-59"
       width="0"
       height="10.999983"
       x="411.57404"
       y="535.0567"
       class="ColorScheme-Text" />
    <text
       sodipodi:linespacing="125%"
       id="text3781"
       y="547.81396"
       x="427.01001"
       style="font-size:9px;font-style:normal;font-weight:normal;line-height:125%;letter-spacing:0px;word-spacing:0px;fill:currentColor;fill-opacity:1;stroke:none;font-family:Sans"
       xml:space="preserve"
       class="ColorScheme-Text"><tspan
         id="tspan3783"
         sodipodi:role="line"
         x="427.01001"
         y="547.81396" /></text>
    <text
       sodipodi:linespacing="125%"
       id="text3781-8"
       y="541.95062"
       x="427.7467"
       style="font-size:9px;font-style:normal;font-weight:normal;line-height:125%;letter-spacing:0px;word-spacing:0px;fill:currentColor;fill-opacity:1;stroke:none;font-family:Sans"
       xml:space="preserve"
       class="ColorScheme-Text"><tspan
         id="tspan3783-1"
         sodipodi:role="line"
         x="427.7467"
         y="541.95062" /></text>
    <text
       sodipodi:linespacing="125%"
       id="text3781-4"
       y="548.81396"
       x="421.01001"
       style="font-size:9px;font-style:normal;font-weight:normal;line-height:125%;letter-spacing:0px;word-spacing:0px;fill:currentColor;fill-opacity:1;stroke:none;font-family:Sans"
       xml:space="preserve"
       class="ColorScheme-Text"><tspan
         id="tspan3783-13"
         sodipodi:role="line"
         x="421.01001"
         y="548.81396" /></text>
    <rect
       style="fill:currentColor;fill-opacity:1;stroke:none"
       id="rect4035-9"
       width="0"
       height="10.999983"
       x="411.57404"
       y="535.0567"
       class="ColorScheme-Text" />
    <rect
       style="fill:currentColor;fill-opacity:1;stroke:none"
       id="rect4035-5-7"
       width="0"
       height="10.999983"
       x="429.61481"
       y="533.00537"
       class="ColorScheme-Text" />
    <rect
       style="fill:currentColor;fill-opacity:1;stroke:none"
       id="rect4035-9-0"
       width="0"
       height="10.999983"
       x="391.57404"
       y="535.0567"
       class="ColorScheme-Text" />
    <rect
       style="fill:currentColor;fill-opacity:1;stroke:none"
       id="rect4035-5-7-5"
       width="0"
       height="10.999983"
       x="409.61481"
       y="533.00537"
       class="ColorScheme-Text" />
    <path
       style="color:#4d4d4d;display:inline;overflow:visible;visibility:visible;fill:#000000;fill-opacity:1;fill-rule:nonzero;stroke:none;stroke-width:2;marker:none;enable-background:accumulate;opacity:0.5"
       d="M 1 1 L 1 6 L 2 6 L 3.5 6 C 4.32843 6 5 5.32843 5 4.5 C 5 3.9667 4.7318 3.48473 4.3125 3.21875 C 4.42796 3.00621 4.5 2.75888 4.5 2.5 C 4.5 1.67157 3.82843 1 3 1 L 2 1 L 1.5 1 L 1 1 z M 11 1 L 11 6 L 12 6 L 13.5 6 C 14.32843 6 15 5.32843 15 4.5 L 15 2.5 C 15 1.67157 14.32843 1 13.5 1 L 12 1 L 11 1 z M 2 2 L 3 2 C 3.27614 2 3.5 2.22386 3.5 2.5 C 3.5 2.77614 3.27614 3 3 3 L 2 3 L 2 2 z M 12 2 L 13.5 2 C 13.77614 2 14 2.22386 14 2.5 L 14 3.09375 L 14 3.90625 L 14 4.5 C 14 4.77614 13.77614 5 13.5 5 L 12 5 L 12 2 z M 6 3 L 6 4 L 9 4 L 9 3 L 6 3 z M 2 4 L 3.5 4 C 3.77614 4 4 4.22386 4 4.5 C 4 4.77614 3.77614 5 3.5 5 L 2 5 L 2 4 z M 1 8 L 1 10 L 5 10 L 5 8 L 1 8 z M 7 8 L 7 10 L 9 10 L 9 8 L 7 8 z M 11 8 L 11 10 L 15 10 L 15 8 L 11 8 z M 6 12 L 2 13.5 L 6 15 L 6 12 z M 10 12 L 10 15 L 14 13.5 L 10 12 z M 8 13 C 7.72386 13 7.5 13.22386 7.5 13.5 C 7.5 13.77614 7.72386 14 8 14 C 8.27614 14 8.5 13.77614 8.5 13.5 C 8.5 13.22386 8.27614 13 8 13 z "
       transform="translate(421.71429,531.79074)"
       id="rect4749" />
  </g>
</svg>

<?xml version="1.0" encoding="UTF-8" standalone="no"?>
<!-- Created with Inkscape (http://www.inkscape.org/) -->
<svg id="svg3049" xmlns:rdf="http://www.w3.org/1999/02/22-rdf-syntax-ns#" xmlns="http://www.w3.org/2000/svg" height="16" width="16" version="1.1" xmlns:cc="http://creativecommons.org/ns#" xmlns:dc="http://purl.org/dc/elements/1.1/">
 <defs id="defs3051">
  <style id="current-color-scheme" type="text/css">.ColorScheme-Text {
        color:#4d4d4d;
      }
      .ColorScheme-Background {
        color:#eff0f1;
      }
      .ColorScheme-Highlight {
        color:#3daee9;
      }
      .ColorScheme-ViewText {
        color:#31363b;
      }
      .ColorScheme-ViewBackground {
        color:#fcfcfc;
      }
      .ColorScheme-ViewHover {
        color:#93cee9;
      }
      .ColorScheme-ViewFocus{
        color:#3daee9;
      }
      .ColorScheme-ButtonText {
        color:#31363b;
      }
      .ColorScheme-ButtonBackground {
        color:#eff0f1;
      }
      .ColorScheme-ButtonHover {
        color:#93cee9;
      }
      .ColorScheme-ButtonFocus{
        color:#3daee9;
      }</style>
 </defs>
 <metadata id="metadata3054">
  <rdf:RDF>
   <cc:Work rdf:about="">
    <dc:format>image/svg+xml</dc:format>
    <dc:type rdf:resource="http://purl.org/dc/dcmitype/StillImage"/>
    <dc:title/>
   </cc:Work>
  </rdf:RDF>
 </metadata>
 <g id="layer1" transform="translate(-421.71 -531.79)">
  <rect id="rect4035" class="ColorScheme-Text" height="11" width="0" y="534.79" x="417.71" fill="currentColor"/>
  <rect id="rect4035-2" class="ColorScheme-Text" height="11" width="0" y="535.06" x="411.57" fill="currentColor"/>
  <rect id="rect4035-5" class="ColorScheme-Text" height="11" width="0" y="533.01" x="429.61" fill="currentColor"/>
  <rect id="rect4035-8" class="ColorScheme-Text" height="11" width="0" y="535.06" x="411.57" fill="currentColor"/>
  <rect id="rect4035-59" class="ColorScheme-Text" height="11" width="0" y="535.06" x="411.57" fill="currentColor"/>
  <text id="text3781" style="word-spacing:0px;letter-spacing:0px" line-height="125%" font-size="9px" class="ColorScheme-Text" y="547.81396" x="427.01001" font-family="Sans" xml:space="preserve" fill="currentColor"><tspan id="tspan3783" x="427.01001" y="547.81396"/></text>
  <text id="text3781-8" style="word-spacing:0px;letter-spacing:0px" line-height="125%" font-size="9px" class="ColorScheme-Text" y="541.95062" x="427.7467" font-family="Sans" xml:space="preserve" fill="currentColor"><tspan id="tspan3783-1" x="427.7467" y="541.95062"/></text>
  <text id="text3781-4" style="word-spacing:0px;letter-spacing:0px" line-height="125%" font-size="9px" class="ColorScheme-Text" y="548.81396" x="421.01001" font-family="Sans" xml:space="preserve" fill="currentColor"><tspan id="tspan3783-13" x="421.01001" y="548.81396"/></text>
  <rect id="rect4035-9" class="ColorScheme-Text" height="11" width="0" y="535.06" x="411.57" fill="currentColor"/>
  <rect id="rect4035-5-7" class="ColorScheme-Text" height="11" width="0" y="533.01" x="429.61" fill="currentColor"/>
  <rect id="rect4035-9-0" class="ColorScheme-Text" height="11" width="0" y="535.06" x="391.57" fill="currentColor"/>
  <rect id="rect4035-5-7-5" class="ColorScheme-Text" height="11" width="0" y="533.01" x="409.61" fill="currentColor"/>
  <path id="rect4749" opacity=".5" style="color:#4d4d4d" d="m1 1v5h1 1.5c0.8284 0 1.5-0.6716 1.5-1.5 0-0.5333-0.2682-1.0153-0.6875-1.2812 0.1155-0.2126 0.1875-0.4599 0.1875-0.7188 0-0.8284-0.6716-1.5-1.5-1.5h-1-0.5-0.5zm10 0v5h1 1.5c0.828 0 1.5-0.6716 1.5-1.5v-2c0-0.8284-0.672-1.5-1.5-1.5h-1.5-1zm-9 1h1c0.2761 0 0.5 0.2239 0.5 0.5s-0.2239 0.5-0.5 0.5h-1v-1zm10 0h1.5c0.276 0 0.5 0.2239 0.5 0.5v0.5938 0.8124 0.5938c0 0.2761-0.224 0.5-0.5 0.5h-1.5v-3zm-6 1v1h3v-1h-3zm-4 1h1.5c0.2761 0 0.5 0.2239 0.5 0.5s-0.2239 0.5-0.5 0.5h-1.5v-1zm-1 4v2h4v-2h-4zm6 0v2h2v-2h-2zm4 0v2h4v-2h-4zm-5 4l-4 1.5 4 1.5v-3zm4 0v3l4-1.5-4-1.5zm-2 1c-0.2761 0-0.5 0.224-0.5 0.5s0.2239 0.5 0.5 0.5 0.5-0.224 0.5-0.5-0.2239-0.5-0.5-0.5z" transform="translate(421.71 531.79)"/>
 </g>
</svg>
